images/gtk3/radio-selected.svg

<svg id="svg6" viewBox="0 0 16 16" xmlns="http://www.w3.org/2000/svg">
  <path id="base_color" d="m16 8a8 8 0 0 1-8 8 8 8 0 0 1-8-8 8 8 0 0 1  8-8 8 8 0 0 1  8 8z" fill="#161616"/>
  <path id="check_color" d="m7.9998597.00048979c-4.4057419.00000011-7.9992296 3.59348441-7.99922949 7.99922961-.00000011 4.4057456 3.59348759 8.0012966 7.99922949 8.0012966 4.4057413 0 7.9992293-3.595551 7.9992293-8.0012966 0-4.4057452-3.593488-7.99922961-7.9992293-7.99922961zm0 2.11659201c3.2618533 0 5.8826373 2.6207828 5.8826373 5.8826376 0 3.2618546-2.620784 5.8847046-5.8826373 5.8847046-3.2618527 0-5.8826376-2.62285-5.8826375-5.8847046-.0000001-3.2618548 2.6207848-5.8826375 5.8826375-5.8826376z" fill="#404040" overflow="visible"/>
  <path id="fg_color" d="m10.5 7.9999997c0 1.3807117-1.1192885 2.5000003-2.5000001 2.5000003-1.3807116 0-2.4999999-1.1192886-2.4999999-2.5000003 0-1.3807116 1.1192883-2.4999996 2.4999999-2.4999996 1.3807116 0 2.5000001 1.119288 2.5000001 2.4999996z" fill="#aaa"/>
</svg>

<?xml version="1.0" encoding="UTF-8" standalone="no"?>
<svg
   xmlns:dc="http://purl.org/dc/elements/1.1/"
   xmlns:cc="http://creativecommons.org/ns#"
   xmlns:rdf="http://www.w3.org/1999/02/22-rdf-syntax-ns#"
   xmlns:svg="http://www.w3.org/2000/svg"
   xmlns="http://www.w3.org/2000/svg"
   xmlns:sodipodi="http://sodipodi.sourceforge.net/DTD/sodipodi-0.dtd"
   xmlns:inkscape="http://www.inkscape.org/namespaces/inkscape"
   viewBox="0 0 16 16"
   version="1.1"
   id="svg6"
   sodipodi:docname="radio-selected.svg"
   inkscape:version="0.92.2 5c3e80d, 2017-08-06">
  <metadata
     id="metadata12">
    <rdf:RDF>
      <cc:Work
         rdf:about="">
        <dc:format>image/svg+xml</dc:format>
        <dc:type
           rdf:resource="http://purl.org/dc/dcmitype/StillImage" />
      </cc:Work>
    </rdf:RDF>
  </metadata>
  <defs
     id="defs10" />
  <sodipodi:namedview
     pagecolor="#ffffff"
     bordercolor="#666666"
     borderopacity="1"
     objecttolerance="10"
     gridtolerance="10"
     guidetolerance="10"
     inkscape:pageopacity="0"
     inkscape:pageshadow="2"
     inkscape:window-width="1912"
     inkscape:window-height="1036"
     id="namedview8"
     showgrid="false"
     inkscape:zoom="20.85965"
     inkscape:cx="-1.0307731"
     inkscape:cy="-4.8779389"
     inkscape:window-x="0"
     inkscape:window-y="0"
     inkscape:window-maximized="1"
     inkscape:current-layer="svg6" />
  <path
     style="fill:#161616;fill-opacity:1;stroke:none;stroke-width:4.22473907;stroke-opacity:1"
     d="M 16,8 A 8,8 0 0 1 8,16 8,8 0 0 1 0,8 8,8 0 0 1 8,0 8,8 0 0 1 16,8 Z"
     id="base_color"
     inkscape:connector-curvature="0" />
  <path
     style="color:#000000;font-style:normal;font-variant:normal;font-weight:normal;font-stretch:normal;font-size:medium;line-height:normal;font-family:sans-serif;font-variant-ligatures:normal;font-variant-position:normal;font-variant-caps:normal;font-variant-numeric:normal;font-variant-alternates:normal;font-feature-settings:normal;text-indent:0;text-align:start;text-decoration:none;text-decoration-line:none;text-decoration-style:solid;text-decoration-color:#000000;letter-spacing:normal;word-spacing:normal;text-transform:none;writing-mode:lr-tb;direction:ltr;text-orientation:mixed;dominant-baseline:auto;baseline-shift:baseline;text-anchor:start;white-space:normal;shape-padding:0;clip-rule:nonzero;display:inline;overflow:visible;visibility:visible;opacity:1;isolation:auto;mix-blend-mode:normal;color-interpolation:sRGB;color-interpolation-filters:linearRGB;solid-color:#000000;solid-opacity:1;vector-effect:none;fill:#404040;fill-opacity:1;fill-rule:nonzero;stroke:none;stroke-width:2.11659193;stroke-linecap:square;stroke-linejoin:bevel;stroke-miterlimit:4;stroke-dasharray:none;stroke-dashoffset:0;stroke-opacity:1;color-rendering:auto;image-rendering:auto;shape-rendering:auto;text-rendering:auto;enable-background:accumulate"
     d="M 7.9998597,4.8979084e-4 C 3.5941178,4.8989666e-4 6.3010334e-4,3.5939742 6.3020916e-4,7.9997194 6.3010334e-4,12.405465 3.5941178,16.001016 7.9998597,16.001016 c 4.4057413,0 7.9992293,-3.595551 7.9992293,-8.0012966 0,-4.4057452 -3.593488,-7.99922960916 -7.9992293,-7.99922960916 z m 0,2.11659200916 c 3.2618533,0 5.8826373,2.6207828 5.8826373,5.8826376 0,3.2618546 -2.620784,5.8847046 -5.8826373,5.8847046 -3.2618527,0 -5.8826376,-2.62285 -5.8826375,-5.8847046 -10e-8,-3.2618548 2.6207848,-5.8826375 5.8826375,-5.8826376 z"
     id="check_color"
     inkscape:connector-curvature="0" />
  <path
     d="M 10.5,7.9999997 C 10.5,9.3807114 9.3807115,10.5 7.9999999,10.5 6.6192883,10.5 5.5,9.3807114 5.5,7.9999997 5.5,6.6192881 6.6192883,5.5000001 7.9999999,5.5000001 9.3807115,5.5000001 10.5,6.6192881 10.5,7.9999997 Z"
     id="fg_color"
     inkscape:connector-curvature="0"
     style="fill:#aaaaaa" />
</svg>
